!!!COM:	Ockeghem, Johannes
!!!CDT:	~1425-1497/02/06
!!!OTL:	Missa Ecce ancilla domini
!!!AGN:	Mass; Credo
!!!SCT:	Ock1006c
!!!SCA:	Ock1006c
!!!voices:	4
**kern	**text	**kern	**text	**kern	**text	**kern	**text
*staff4	*staff4	*staff3	*staff3	*staff2	*staff2	*staff1	*staff1
*Ivox	*	*Ivox	*	*Ivox	*	*Ivox	*
*I"Bassus	*	*I"Tenor	*	*I"Contratenor	*	*I"Discantus	*
*I'B	*	*I'T	*	*I'Ct	*	*I'D	*
*>[A,B]	*>[A,B]	*>[A,B]	*>[A,B]	*>[A,B]	*>[A,B]	*>[A,B]	*>[A,B]
*>A	*>A	*>A	*>A	*>A	*>A	*>A	*>A
*clefF4	*	*clefF4	*	*clefGv2	*	*clefG2	*
*k[b-]	*	*k[b-]	*	*k[b-]	*	*k[b-]	*
*M3/1	*	*M3/1	*	*M3/1	*	*M3/1	*
*met(O)	*	*met(O)	*	*met(O)	*	*met(O)	*
!!section: Patrem
!!!OMD: Patrem
=1-	=1-	=1-	=1-	=1-	=1-	=1-	=1-
0.r	.	0.r	.	0c	Pa-	1.g	Pa-
.	.	.	.	.	.	1a	.
.	.	.	.	1c	-trem,	.	.
.	.	.	.	.	.	4g/	.
.	.	.	.	.	.	4f/	.
=2	=2	=2	=2	=2	=2	=2	=2
0.r	.	0.r	.	1.c	pa-	1e	.
.	.	.	.	.	.	2.g/	.
.	.	.	.	1d	.	.	.
.	.	.	.	.	.	4f/	.
.	.	.	.	.	.	1d	.
.	.	.	.	4c\	.	.	.
.	.	.	.	4B-\	.	.	.
=3	=3	=3	=3	=3	=3	=3	=3
0.r	.	0.r	.	1A	.	1c	-trem
.	.	.	.	2.c\	.	1r	.
.	.	.	.	4B-\	.	.	.
.	.	.	.	1G	.	1g	om-
=4	=4	=4	=4	=4	=4	=4	=4
0.r	.	0.r	.	1F	-trem	1a	-ni-
.	.	.	.	1r	.	2b-\	-po-
.	.	.	.	.	.	2.cc\	-ten-
.	.	.	.	1c	om-	.	.
.	.	.	.	.	.	4b-\	.
.	.	.	.	.	.	2g/	.
=5	=5	=5	=5	=5	=5	=5	=5
0.r	.	0.r	.	1d	-ni-	2f/	-tem,
.	.	.	.	.	.	2a/	fac-
.	.	.	.	2e\	-po-	2g/	-to-
.	.	.	.	2.f\	-ten-	2.a/	-rem
.	.	.	.	4e\	.	4g/	.
.	.	.	.	2c\	.	2e/	.
=6	=6	=6	=6	=6	=6	=6	=6
0.r	.	0.r	.	2B-\	-tem,	2d/	ce-
.	.	.	.	2d\	fac-	2f/	.
.	.	.	.	2G/	-to-	1e	-li
.	.	.	.	1A	-rem	.	.
.	.	.	.	.	.	2c/	et
.	.	.	.	2F/	ce-	2d/	.
=7	=7	=7	=7	=7	=7	=7	=7
0.r	.	0.r	.	2E/	-li	4c/	ter-
.	.	.	.	.	.	4B-/	.
.	.	.	.	2F/	et	2A/	.
.	.	.	.	2C/	ter-	2G/	.
.	.	.	.	2E/	.	1c	.
.	.	.	.	1D	.	.	.
.	.	.	.	.	.	2Bni/	.
=8	=8	=8	=8	=8	=8	=8	=8
0.r	.	0.r	.	0.C	-re,	0c	-re,
.	.	.	.	.	.	1r	.
=9	=9	=9	=9	=9	=9	=9	=9
0.r	.	0.r	.	1r	.	1g	vi-
.	.	.	.	1r	.	1a	-si-
.	.	.	.	1G	vi-	2g/	-bi-
.	.	.	.	.	.	[2e/	.
=10	=10	=10	=10	=10	=10	=10	=10
0.r	.	0.r	.	1A	-si-	2e/]	.
.	.	.	.	.	.	2f/	.
.	.	.	.	2G/	-bi-	1g	-li-
.	.	.	.	2.E/	.	.	.
.	.	.	.	.	.	2c/	-um
.	.	.	.	4F/	.	.	.
.	.	.	.	2G/	-li-	2B-/	om-
=11	=11	=11	=11	=11	=11	=11	=11
0.r	.	0.r	.	2C/	-um	2c/	.
.	.	.	.	2G/	om-	2d/	.
.	.	.	.	2A/	.	2c/	.
.	.	.	.	2G/	-ni-	2.g/	.
.	.	.	.	2.c\	-um	.	.
.	.	.	.	.	.	4a/	.
.	.	.	.	.	.	2g/	.
.	.	.	.	4B-\	.	.	.
=12	=12	=12	=12	=12	=12	=12	=12
0.r	.	0.r	.	2.d\	.	2f/	-ni-
.	.	.	.	.	.	2.a/	-um
.	.	.	.	4c\	.	.	.
.	.	.	.	2c\	.	.	.
.	.	.	.	.	.	4g/	.
.	.	.	.	2A/	.	4f/	.
.	.	.	.	.	.	4e/	.
.	.	.	.	1Bni	.	1d	.
=13	=13	=13	=13	=13	=13	=13	=13
0.r	.	0.r	.	1c	et	2r	.
.	.	.	.	.	.	1a	et
.	.	.	.	1.d	in-	.	.
.	.	.	.	.	.	1b-	in-
.	.	.	.	4c\	.	4a/	.
.	.	.	.	4B-\	.	4g/	.
=14	=14	=14	=14	=14	=14	=14	=14
0.r	.	0.r	.	2A/	.	2f/	.
.	.	.	.	1G	-vi-	2g/	-vi-
.	.	.	.	.	.	2b-i\	.
.	.	.	.	2c\	-si-	2a/	-si-
.	.	.	.	2B-\	-bi-	2b-i\	-bi-
.	.	.	.	2c\	.	[2a/	.
=15	=15	=15	=15	=15	=15	=15	=15
1r	.	0.r	.	2d\	.	2a/]	.
.	.	.	.	2B-\	.	1g	.
1r	.	.	.	1A	-li-	.	.
.	.	.	.	.	.	2f#i/	-li-
2r	.	.	.	1G	-um.	1g	-um.
2C/	Et	.	.	.	.	.	.
=16	=16	=16	=16	=16	=16	=16	=16
2BB-/	in	0.r	.	2r	.	0.r	.
2C/	.	.	.	2G/	Et	.	.
2D\	u-	.	.	2F/	in	.	.
2BB-/	.	.	.	2G/	.	.	.
1AA	-num	.	.	2A/	u-	.	.
.	.	.	.	2F/	.	.	.
=17	=17	=17	=17	=17	=17	=17	=17
2GG/	.	0.r	.	1E	-num	0.r	.
2C/	do-	.	.	.	.	.	.
2D\	.	.	.	2D/	.	.	.
2E\	-mi-	.	.	2G/	do-	.	.
2F\	-num	.	.	2A/	.	.	.
2D\	.	.	.	2B-\	-mi-	.	.
=18	=18	=18	=18	=18	=18	=18	=18
1C	.	0.r	.	2c\	-num	0.r	.
.	.	.	.	2A/	.	.	.
2r	.	.	.	1G	.	.	.
2G\	Je-	.	.	.	.	.	.
2F\	.	.	.	2r	.	.	.
2G\	.	.	.	2d\	Je-	.	.
=19	=19	=19	=19	=19	=19	=19	=19
2A\	-sum	0.r	.	2c\	.	0.r	.
2F\	.	.	.	2d\	.	.	.
2E\	.	.	.	2e\	-sum	.	.
1F	Chris-	.	.	2c\	.	.	.
.	.	.	.	1d	.	.	.
2G\	.	.	.	.	.	.	.
=20	=20	=20	=20	=20	=20	=20	=20
2A\	.	0.r	.	2c\	Chris-	0.r	.
1G	.	.	.	2B-\	.	.	.
.	.	.	.	1A	.	.	.
2F#i\	.	.	.	.	.	.	.
1G	-tum,	.	.	1G	-tum,	.	.
=21	=21	=21	=21	=21	=21	=21	=21
2F\	.	0.r	.	1r	.	0.r	.
2E\	.	.	.	.	.	.	.
1D	.	.	.	1F	fi-	.	.
1C	.	.	.	1E	-li-	.	.
=22	=22	=22	=22	=22	=22	=22	=22
1r	.	0.r	.	1A	-um	0.r	.
1BB-	fi-	.	.	2.G/	de-	.	.
.	.	.	.	8F/L	.	.	.
.	.	.	.	8E/J	.	.	.
1AA	-li-	.	.	2F/	.	.	.
.	.	.	.	2C/	.	.	.
=23	=23	=23	=23	=23	=23	=23	=23
1D	-um	0.r	.	1F	.	0.r	.
2.C/	de-	.	.	1E	-i	.	.
8BB-/L	.	.	.	.	.	.	.
8AA/J	.	.	.	.	.	.	.
2BB-/	.	.	.	2r	.	.	.
2FF/	.	.	.	[2D/	u-	.	.
=24	=24	=24	=24	=24	=24	=24	=24
1BB-	.	0.r	.	2D/]	.	0.r	.
.	.	.	.	2D/	-ni-	.	.
1AA	-i	.	.	2E/	-ge-	.	.
.	.	.	.	2F/	-ni-	.	.
2GG/	u-	.	.	1G	-tum.	.	.
2C/	-ni-	.	.	.	.	.	.
=25	=25	=25	=25	=25	=25	=25	=25
2D\	-ge-	0.r	.	2r	.	0.r	.
2E\	-ni-	.	.	2G/	Et	.	.
2.F\	-tum.	.	.	2A/	ex	.	.
.	.	.	.	2B-\	.	.	.
4D\	.	.	.	.	.	.	.
2E\	Et	.	.	2.c\	pa-	.	.
2F\	ex	.	.	.	.	.	.
.	.	.	.	4A/	.	.	.
=26	=26	=26	=26	=26	=26	=26	=26
2.G\	pa-	0.r	.	2B-\	.	0.r	.
.	.	.	.	2.d\	.	.	.
4F\	.	.	.	.	.	.	.
2D\	.	.	.	.	.	.	.
.	.	.	.	4c\	.	.	.
2.F\	.	.	.	2A/	.	.	.
.	.	.	.	2.c\	.	.	.
4E\	.	.	.	.	.	.	.
2C/	.	.	.	.	.	.	.
.	.	.	.	4B-\	.	.	.
=27	=27	=27	=27	=27	=27	=27	=27
1D	-tre	0.r	.	4A/	.	0.r	.
.	.	.	.	4G/	.	.	.
.	.	.	.	2B-\	.	.	.
2C/	.	.	.	2A/	.	.	.
2.F\	na-	.	.	2F/	.	.	.
.	.	.	.	1G	-tre	.	.
4E\	.	.	.	.	.	.	.
[2E\	.	.	.	.	.	.	.
=28	=28	=28	=28	=28	=28	=28	=28
4E\]	.	0.r	.	1F	na-	0.r	.
4D\	.	.	.	.	.	.	.
2.D\	.	.	.	.	.	.	.
.	.	.	.	1E	.	.	.
4C/	.	.	.	.	.	.	.
2.C/	.	.	.	.	.	.	.
.	.	.	.	1D	.	.	.
2BB-/	.	.	.	.	.	.	.
4GG/	.	.	.	.	.	.	.
=29	=29	=29	=29	=29	=29	=29	=29
2AA/	.	0.r	.	2C/	.	0.r	.
2GG/	-tum	.	.	2D/	.	.	.
2r	.	.	.	1E	.	.	.
1G	an-	.	.	.	.	.	.
.	.	.	.	1D	.	.	.
2F\	-te	.	.	.	.	.	.
=30	=30	=30	=30	=30	=30	=30	=30
2G\	om-	0.r	.	1C	-tum	0.r	.
1A	-ni-	.	.	.	.	.	.
.	.	.	.	1c	an-	.	.
2F\	-a	.	.	.	.	.	.
2G\	se-	.	.	2B-\	-te	.	.
2E\	.	.	.	2c\	om-	.	.
=31	=31	=31	=31	=31	=31	=31	=31
2D\	.	0.r	.	2d\	-ni-	0.r	.
2G\	.	.	.	2B-\	-a	.	.
2E\	.	.	.	1c	se-	.	.
1F	.	.	.	.	.	.	.
.	.	.	.	2A/	.	.	.
2E\	.	.	.	[2G/	.	.	.
=32	=32	=32	=32	=32	=32	=32	=32
1C	.	0.r	.	2G/]	.	0.r	.
.	.	.	.	2c\	.	.	.
2BB-/	.	.	.	2d\	.	.	.
2C/	.	.	.	2.e\	.	.	.
2AA/	.	.	.	.	.	.	.
.	.	.	.	4c\	.	.	.
[2GG/	.	.	.	2d\	.	.	.
=33	=33	=33	=33	=33	=33	=33	=33
2GG/]	.	0.r	.	2.e\	.	0.r	.
2.C/	.	.	.	.	.	.	.
.	.	.	.	4c\	.	.	.
.	.	.	.	2d\	.	.	.
4GG/	.	.	.	.	.	.	.
2C/	.	.	.	1c	.	.	.
1D	-cu-	.	.	.	.	.	.
.	.	.	.	2Bni\	-cu-	.	.
=34	=34	=34	=34	=34	=34	=34	=34
0.C	-la.	[0.G	De-	1c	-la.	1e	De-
.	.	.	.	1r	.	1e	-um
.	.	.	.	1c	lu-	1e	de
=35	=35	=35	=35	=35	=35	=35	=35
1r	.	0.G]	.	1d	-men	0g	de-
0C	de	.	.	0e	de	.	.
.	.	.	.	.	.	1g	-o,
=36	=36	=36	=36	=36	=36	=36	=36
0.FF	lu-	0.F	-um	1.f	lu-	1.a	lu-
.	.	.	.	4e\	.	1cc	-men
.	.	.	.	4d\	.	.	.
.	.	.	.	[1c	.	.	.
.	.	.	.	.	.	2b-\	de
=37	=37	=37	=37	=37	=37	=37	=37
0.C	-mi-	1E	de	2c\]	.	2.a/	lu-
.	.	.	.	2d\	.	.	.
.	.	.	.	.	.	4g/	.
.	.	0G	de-	1e	-mi-	2.g/	.
.	.	.	.	.	.	4f/	.
.	.	.	.	1c	-ne,	1e	-mi-
=38	=38	=38	=38	=38	=38	=38	=38
0GG	-ne,	[0.G	-o,	1r	.	0d	-ne,
.	.	.	.	1B-	de-	.	.
1C	de-	.	.	1c	-um	1e	de-
=39	=39	=39	=39	=39	=39	=39	=39
2BB-/	-um	0.G]	.	2d\	ve-	2d/	-um
1C	ve-	.	.	1e	.	2c/	.
.	.	.	.	.	.	2e/	ve-
2D\	.	.	.	1d	-rum	2f/	.
1E	-rum	.	.	.	.	1g	-rum
.	.	.	.	2c#i\	de	.	.
=40	=40	=40	=40	=40	=40	=40	=40
0D	de	[0.A	de	0d	de-	1.f	de
.	.	.	.	.	.	1a	de-
[1AA	de-	.	.	1f	-o	.	.
.	.	.	.	.	.	2b-\	-o
=41	=41	=41	=41	=41	=41	=41	=41
1AA]	.	1A]	.	1e	ve-	1.cc	ve-
0BB-	.	0G	de-	2.g\	.	.	.
.	.	.	.	.	.	4b-\	.
.	.	.	.	4f\	.	4a/	.
.	.	.	.	1d	-ro.	1g	.
=42	=42	=42	=42	=42	=42	=42	=42
2.AA/	-o	0.F	-o	0.r	.	0.a	-ro.
4BB-/	.	.	.	.	.	.	.
2C/	.	.	.	.	.	.	.
1D	ve-	.	.	.	.	.	.
4C/	.	.	.	.	.	.	.
4BB-/	.	.	.	.	.	.	.
=43	=43	=43	=43	=43	=43	=43	=43
1AA	.	1F	ve-	0.r	.	1r	.
2GG/	.	2G\	.	.	.	1b-	Ge-
2BB-/	.	1G	.	.	.	.	.
1AA	.	.	.	.	.	1cc	-ni-
.	.	2F#i\	.	.	.	.	.
=44	=44	=44	=44	=44	=44	=44	=44
0.GG	-ro.	0.G	-ro.	1d	Ge-	2b-\	-tum,
.	.	.	.	.	.	1b-	non
.	.	.	.	1d	-ni-	.	.
.	.	.	.	.	.	2g/	.
.	.	.	.	1d	-tum,	2.b-\	fac-
.	.	.	.	.	.	4cc\	.
=45	=45	=45	=45	=45	=45	=45	=45
1r	.	0.C	.	1e	non	2a/	-tum,
.	.	.	.	.	.	2g/	.
1FF	con-	.	.	1f	fac-	2f/	.
.	.	.	.	.	.	2.a/	con-
1C	-sub-	.	.	1e	.	.	.
.	.	.	.	.	.	4g/	.
.	.	.	.	.	.	2g/	-sub-
=46	=46	=46	=46	=46	=46	=46	=46
1D	-stan-	0.r	.	2d\	-tum,	4f/	-stan-
.	.	.	.	.	.	4d/	.
.	.	.	.	4c\	con-	2f/	-ti-
.	.	.	.	2B-\	.	.	.
2G\	-ti-	.	.	.	.	2e/	-a-
.	.	.	.	4A/	.	.	.
2F\	-a-	.	.	2A/	.	4d/	.
.	.	.	.	.	.	2d/	.
1E	-lem	.	.	2.G/	-sub-	.	.
.	.	.	.	.	.	4c#i/	.
.	.	.	.	.	.	4c#i/	.
.	.	.	.	4E/	.	4Bni/	.
=47	=47	=47	=47	=47	=47	=47	=47
0.D	pa-	1r	.	1F	-stan-	1d	-lem
.	.	0BB-	pa-	2G/	-ti-	1r	.
.	.	.	.	1G	-a-	.	.
.	.	.	.	.	.	1d	pa-
.	.	.	.	2F/	.	.	.
=48	=48	=48	=48	=48	=48	=48	=48
0.GG	-tri,	[0.D	-tri,	0G	-lem	1.B-	.
.	.	.	.	.	.	2c/	.
.	.	.	.	1r	.	1d	.
=49	=49	=49	=49	=49	=49	=49	=49
1r	.	0.D]	.	1A	pa-	1f	.
0GG	per	.	.	0B-	-tri,	0g	-tri,
=50	=50	=50	=50	=50	=50	=50	=50
0.FF	quem	0.F	per	1c	per	1a	per
.	.	.	.	2d\	quem	1a	quem
.	.	.	.	2c\	.	.	.
.	.	.	.	[1f	om-	1a	om-
=51	=51	=51	=51	=51	=51	=51	=51
0FF	om-	0F	quem	2f\]	.	1.cc	.
.	.	.	.	2e\	-ni-	.	.
.	.	.	.	1c	-a	.	.
.	.	.	.	.	.	4b-\	-ni-
.	.	.	.	.	.	4a/	.
1GG	-ni-	1E	om-	2r	.	1g	-a
.	.	.	.	[2B-\	fac-	.	.
=52	=52	=52	=52	=52	=52	=52	=52
2.BB-/	-a	1D	-ni-	2B-\]	.	1f	fac-
.	.	.	.	1d	.	.	.
4AA/	.	.	.	.	.	.	.
0FF	fac-	1.F	-a	.	.	2.a/	.
.	.	.	.	4c\	.	.	.
.	.	.	.	4B-\	.	4b-\	.
.	.	.	.	2.A/	.	[1cc	.
.	.	4E\	fac-	.	.	.	.
.	.	4D\	.	4B-\	.	.	.
=53	=53	=53	=53	=53	=53	=53	=53
2.AA/	-ta	1C	-ta	1.c	.	2cc\]	.
.	.	.	.	.	.	4b-\	.
4BB-/	.	.	.	.	.	4a/	.
1C	sunt.	1C	sunt.	.	.	1.g	.
.	.	.	.	4B-\	-ta	.	.
.	.	.	.	4A/	.	.	.
1r	.	2r	.	1G	sunt.	.	.
.	.	[2C/	Qui	.	.	4f/	-ta
.	.	.	.	.	.	4e/	.
=54	=54	=54	=54	=54	=54	=54	=54
1GG	Qui	2C/]	.	2r	.	1d	sunt.
.	.	2BBni/	.	1G	Qui	.	.
2G\	prop-	0C	prop-	.	.	1c	.
1.E	.	.	.	2A/	prop-	.	.
.	.	.	.	2G/	.	2r	.
.	.	.	.	2c\	.	[2g/	Qui
=55	=55	=55	=55	=55	=55	=55	=55
2D\	.	1D	.	2B-\	.	2g/]	.
2F\	.	.	.	2A/	.	2f/	.
2E\	.	1C	-ter	1c	.	0g	prop-
2C/	.	.	.	.	.	.	.
2BB-/	.	2r	.	2d\	.	.	.
2C/	.	[2C/	nos	[2e\	.	.	.
=56	=56	=56	=56	=56	=56	=56	=56
2AA/	.	2C/]	.	2e\]	.	1a	.
2FF/	.	2AA/	.	2f\	.	.	.
2GG/	-ter	2BB-/	ho-	2d\	-ter	1g	-ter
2C/	.	2.C/	-mi-	2.e\	nos	.	.
2r	.	.	.	.	.	2r	.
.	.	4BB-/	.	4d\	.	.	.
2BB-/	nos	2GG/	.	2d\	.	[2g/	nos
=57	=57	=57	=57	=57	=57	=57	=57
1C	.	1AA	-nes,	2.c\	.	4g/]	.
.	.	.	.	.	.	4e/	.
.	.	.	.	.	.	2f/	.
.	.	.	.	4A/	.	.	.
2.G\	ho-	0GG	.	2.B-\	ho-	2e/	ho-
.	.	.	.	.	.	2.g/	-mi-
4F\	.	.	.	4c\	.	.	.
2D\	.	.	.	2d\	-mi-	.	.
.	.	.	.	.	.	4f/	.
2BB-/	-mi-	.	.	[2G/	-nes,	2d/	.
=58	=58	=58	=58	=58	=58	=58	=58
1C	-nes,	0.r	.	2G/]	.	1e	.
.	.	.	.	2c\	.	.	.
0GG	.	.	.	2.B-\	et	1d	-nes,
.	.	.	.	4G/	.	.	.
.	.	.	.	2.B-\	prop-	2r	.
.	.	.	.	.	.	2d/	et
.	.	.	.	4c\	.	.	.
=59	=59	=59	=59	=59	=59	=59	=59
0.r	.	0.r	.	4d\	.	2.f/	prop-
.	.	.	.	4e\	.	.	.
.	.	.	.	1f	.	.	.
.	.	.	.	.	.	4g/	.
.	.	.	.	.	.	4a/	.
.	.	.	.	.	.	4b-\	.
.	.	.	.	2e\	.	2.cc\	.
.	.	.	.	2.c\	.	.	.
.	.	.	.	.	.	4b-\	.
.	.	.	.	.	.	2g/	.
.	.	.	.	4d\	.	.	.
=60	=60	=60	=60	=60	=60	=60	=60
0.r	.	0.r	.	2f\	-ter	2a/	-ter
.	.	.	.	2e\	nos-	2cc\	nos-
.	.	.	.	2.d\	-tram	2b-\	-tram
.	.	.	.	.	.	2.a/	sa-
.	.	.	.	4c\	.	.	.
.	.	.	.	1c	sa-	.	.
.	.	.	.	.	.	4g/	.
.	.	.	.	.	.	[2g/	.
=61	=61	=61	=61	=61	=61	=61	=61
0.r	.	0.r	.	2B-\	-lu-	2g/]	.
.	.	.	.	2A/	.	2f/	.
.	.	.	.	1G	.	2e/	-lu-
.	.	.	.	.	.	2.d/	.
.	.	.	.	2F/	.	.	.
.	.	.	.	.	.	4c/	.
.	.	.	.	2G/	.	2B-/	.
=62	=62	=62	=62	=62	=62	=62	=62
1D	de-	0.r	.	4A/	.	1A	.
.	.	.	.	2F/	.	.	.
.	.	.	.	4E/	.	.	.
2.E\	-scen-	.	.	1G	.	1G	-tem,
8D\L	.	.	.	.	.	.	.
8E\J	.	.	.	.	.	.	.
2F\	.	.	.	2A/	.	1r	.
2C/	.	.	.	[2c\	.	.	.
=63	=63	=63	=63	=63	=63	=63	=63
1D	-dit	1GG	de-	2c\]	.	1d	de-
.	.	.	.	2Bni\	.	.	.
2r	.	1C	-scen-	1c	-tem,	2e/	-scen-
2C/	de	.	.	.	.	1g	.
2BB-/	ce-	2D\	.	1r	.	.	.
2D\	.	2F\	.	.	.	2f/	.
=64	=64	=64	=64	=64	=64	=64	=64
1C	.	4E\	.	1c	de-	2g/	.
.	.	2E\	.	.	.	.	.
.	.	.	.	.	.	1a	.
.	.	4D\	.	.	.	.	.
1FF	.	1F	-dit	2d\	-scen-	.	.
.	.	.	.	1f	.	2f/	.
1C	.	1r	.	.	.	1g	-dit
.	.	.	.	2e\	.	.	.
=65	=65	=65	=65	=65	=65	=65	=65
2D\	-lis,	0D	de	1f	-dit	2.f/	de
2BB-/	.	.	.	.	.	.	.
.	.	.	.	.	.	4g/	.
2r	.	.	.	2.d\	de	2a/	.
2BB-/	ce-	.	.	.	.	1b-	ce-
.	.	.	.	4B-\	.	.	.
1FF	.	1C	ce-	1c	ce-	.	.
.	.	.	.	.	.	2a/	.
=66	=66	=66	=66	=66	=66	=66	=66
0F	-lis.	1BB-	-lis.	1d	.	1b-	.
.	.	1r	.	2c\	.	2cc\	.
.	.	.	.	1f	.	2a/	.
1r	.	1C	Et	.	.	1g	-lis.
.	.	.	.	2e\	.	.	.
=67	=67	=67	=67	=67	=67	=67	=67
0.r	.	1D	.	1d	-lis,	1f	Et
.	.	2C/	in-	1r	.	2e/	in-
.	.	1F	.	.	.	2f/	.
.	.	.	.	1r	.	1g	-car-
.	.	2E\	-car-	.	.	.	.
=68	=68	=68	=68	=68	=68	=68	=68
0.r	.	2F\	-na-	0.r	.	2f/	-na-
.	.	1G	.	.	.	1e	.
.	.	2F\	.	.	.	1d	.
.	.	1E	-tus	.	.	.	.
.	.	.	.	.	.	2c#i/	.
=69	=69	=69	=69	=69	=69	=69	=69
0.r	.	1D	est	0.r	.	2d/	-tus
.	.	.	.	.	.	2.f/	est
.	.	1F	.	.	.	.	.
.	.	.	.	.	.	4e/	.
.	.	.	.	.	.	2.c/	.
.	.	2E\	.	.	.	.	.
.	.	.	.	.	.	4B-/	.
.	.	2C/	de	.	.	2c/	de
=70	=70	=70	=70	=70	=70	=70	=70
0.r	.	2BB-/	spi-	0.r	.	2d/	spi-
.	.	2C/	.	.	.	2c/	.
.	.	1D	.	.	.	2.f/	.
.	.	.	.	.	.	8e/L	.
.	.	.	.	.	.	8f/J	.
.	.	2GG/	.	.	.	2.g/	.
.	.	[2C/	.	.	.	.	.
.	.	.	.	.	.	[4e/	.
=71	=71	=71	=71	=71	=71	=71	=71
0.r	.	2C/]	.	0G	sanc-	4e/]	.
.	.	.	.	.	.	4c/	.
.	.	2BB-/	-ri-	.	.	2d/	-ri-
.	.	1C	-tu	.	.	2e/	-tu
.	.	.	.	.	.	1c	sanc-
.	.	1D	sanc-	1F	.	.	.
.	.	.	.	.	.	2Bni/	.
=72	=72	=72	=72	=72	=72	=72	=72
1r	.	0C	-to	0G	-to	0c	-to
1r	.	.	.	.	.	.	.
1GG	ex	1r	.	2r	.	1r	.
.	.	.	.	[2G/	ex	.	.
=73	=73	=73	=73	=73	=73	=73	=73
2.C/	Ma-	0.r	.	4G/]	.	0.r	.
.	.	.	.	4A/	.	.	.
.	.	.	.	2B-\	Ma-	.	.
4D\	.	.	.	.	.	.	.
2E\	.	.	.	2.c\	-ri-	.	.
2.F\	-ri-	.	.	.	.	.	.
.	.	.	.	4B-\	.	.	.
.	.	.	.	4A/	.	.	.
4E\	.	.	.	4G/	.	.	.
4D\	.	.	.	2F/	.	.	.
4C/	.	.	.	.	.	.	.
=74	=74	=74	=74	=74	=74	=74	=74
2BB-/	.	0.r	.	2G/	.	0.r	.
2C/	.	.	.	1A	.	.	.
1D	.	.	.	.	.	.	.
.	.	.	.	2B-\	.	.	.
2E-i\	-a	.	.	1G	-a	.	.
[2C/	.	.	.	.	.	.	.
=75	=75	=75	=75	=75	=75	=75	=75
2C/]	.	0.r	.	2.c\	vir-	0.r	.
2.F\	vir-	.	.	.	.	.	.
.	.	.	.	4B-\	.	.	.
.	.	.	.	2c\	.	.	.
4E\	.	.	.	.	.	.	.
2F\	.	.	.	1d	.	.	.
1G	.	.	.	.	.	.	.
.	.	.	.	2c\	-gi-	.	.
=76	=76	=76	=76	=76	=76	=76	=76
2F\	-gi-	0.r	.	0A	-ne:	0.r	.
1D	-ne:	.	.	.	.	.	.
2.F\	Et	.	.	.	.	.	.
.	.	.	.	2.c\	Et	.	.
4E\	.	.	.	.	.	.	.
[2C/	.	.	.	.	.	.	.
.	.	.	.	4B-\	.	.	.
=77	=77	=77	=77	=77	=77	=77	=77
4C/]	.	0.r	.	2G/	.	0.r	.
4BB-/	.	.	.	.	.	.	.
2.D\	ho-	.	.	2F/	.	.	.
.	.	.	.	2.A/	ho-	.	.
4C/	.	.	.	.	.	.	.
2AA/	.	.	.	.	.	.	.
.	.	.	.	4G/	.	.	.
2GG/	.	.	.	2E/	.	.	.
2D\	-mo	.	.	2D/	.	.	.
=78	=78	=78	=78	=78	=78	=78	=78
2.E\	fac-	0.r	.	2C/	-mo	0.r	.
.	.	.	.	2G/	fac-	.	.
4C/	.	.	.	.	.	.	.
2C/	.	.	.	4A/	.	.	.
.	.	.	.	2G/	.	.	.
4BB-/	.	.	.	.	.	.	.
4C/	.	.	.	4E/	.	.	.
4D\	.	.	.	4F/	.	.	.
2C/	.	.	.	4E/	.	.	.
.	.	.	.	2D/	-tus	.	.
4BBni/	-tus	.	.	.	.	.	.
=79	=79	=79	=79	=79	=79	=79	=79
1C	est.	1r	.	1C	est.	1r	.
2r	.	0GG	Cru-	1r	.	0d	Cru-
1BB-	Cru-	.	.	.	.	.	.
.	.	.	.	1r	.	.	.
4AA/	-ci-	.	.	.	.	.	.
4BB-/	.	.	.	.	.	.	.
=80	=80	=80	=80	=80	=80	=80	=80
2.C/	-fi-	0.C	-ci-	0.c	Cru-	2e/	-ci-
.	.	.	.	.	.	2f/	.
4D\	.	.	.	.	.	.	.
0E	-xus	.	.	.	.	1.g	-fi-
.	.	.	.	.	.	[2a/	-xus
=81	=81	=81	=81	=81	=81	=81	=81
1F	e-	1D	-fi-	1A	-ci-	2a/]	.
.	.	.	.	.	.	2b-\	.
2.C/	-ti-	0E	-xus	0G	-fi-	1cc	e-
4AA/	.	.	.	.	.	.	.
1GG	.	.	.	.	.	2.b-\	-ti-
.	.	.	.	.	.	4a/	.
=82	=82	=82	=82	=82	=82	=82	=82
0FF	-am	0F	e-	2.A/	-xus	0a	-am
.	.	.	.	4B-\	.	.	.
.	.	.	.	1c	e-	.	.
1r	.	1D	-ti-	1d	-ti-	1f	pro
=83	=83	=83	=83	=83	=83	=83	=83
0.r	.	1C	-am	1e	-am	1.g	no-
.	.	0BB-	pro	1.d	pro	.	.
.	.	.	.	.	.	2f/	.
.	.	.	.	.	.	1d	.
.	.	.	.	2B-\	.	.	.
=84	=84	=84	=84	=84	=84	=84	=84
0.r	.	1C	no-	2A/	no-	1c	-bis;
.	.	.	.	1G	.	.	.
.	.	0D	.	.	.	2r	.
.	.	.	.	2c\	.	1f	sub
.	.	.	.	2Bni\	.	.	.
.	.	.	.	2A/	.	4e/	.
.	.	.	.	.	.	4d/	.
=85	=85	=85	=85	=85	=85	=85	=85
1G	sub	0C	-bis;	1c	-bis;	2.e/	Pon-
.	.	.	.	.	.	4f/	.
2E\	.	.	.	1r	.	2g/	-ti-
2C/	.	.	.	.	.	1a	-o
1D	.	1F	sub	1d	sub	.	.
.	.	.	.	.	.	2f/	Pi-
=86	=86	=86	=86	=86	=86	=86	=86
1.C	Pon-	1.E	Pon-	1e	Pon-	2.g/	-la-
.	.	.	.	.	.	4f/	.
.	.	.	.	2c\	-ti-	4e/	.
.	.	.	.	.	.	4d/	.
2.D\	.	1.F	-ti-	2B-\	.	1d	.
.	.	.	.	1A	-o	.	.
4BB-/	.	.	.	.	.	.	.
2AA/	.	.	.	.	.	2c/	.
=87	=87	=87	=87	=87	=87	=87	=87
1GG	.	2.G\	-o	2.B-\	Pi-	2e/	.
.	.	.	.	.	.	2.d/	.
.	.	4F\	.	4c\	.	.	.
2BB-/	-ti-	2D\	.	4d\	.	.	.
.	.	.	.	4e-i\	.	4B-/	.
2FF/	.	2F\	Pi-	1d	-la-	2A/	.
1C	-o	1E	-la-	.	.	1G	.
.	.	.	.	2c\	.	.	.
=88	=88	=88	=88	=88	=88	=88	=88
2r	.	1D	-to	1.d	-to	2A/	.
2.BB-/	Pi-	.	.	.	.	2.B-/	.
.	.	1F	pas-	.	.	.	.
4AA/	.	.	.	.	.	4c/	.
2FF/	.	.	.	2.c\	pas-	2A/	.
1C	-la-	2E\	.	.	.	1G	-to
.	.	.	.	4B-\	.	.	.
.	.	[2C/	.	4A/	.	.	.
.	.	.	.	4G/	.	.	.
=89	=89	=89	=89	=89	=89	=89	=89
2AA/	-to	2C/]	.	2c\	.	1r	.
2GG/	.	2BB-/	.	1d	.	.	.
2r	.	1C	.	.	.	2g/	pas-
2G\	pas-	.	.	2c\	.	2e/	.
2F\	.	1D	.	2B-\	.	2f/	.
2D\	.	.	.	2A/	.	[2a/	.
=90	=90	=90	=90	=90	=90	=90	=90
2E\	-sus	1.C	.	2c\	.	4a/]	.
.	.	.	.	.	.	4g/	.
2C/	.	.	.	2G/	.	2e/	.
2r	.	.	.	2A/	.	2c/	.
2GG/	et	1.BB-	-sus	4G/	.	2d/	-sus
.	.	.	.	2G/	.	.	.
1GG	se-	.	.	.	.	2r	.
.	.	.	.	8F/L	.	.	.
.	.	.	.	8E/J	.	.	.
.	.	.	.	2D/	.	2d/	et
=91	=91	=91	=91	=91	=91	=91	=91
2G\	-pul-	2C/	et	2C/	-sus	2e/	.
2F\	.	2D\	se-	2r	.	2f/	se-
2E\	.	2E\	-pul-	2c\	et	2g/	-pul-
2D\	.	1F	.	1d	se-	2a/	.
2BB-/	.	.	.	.	.	2b-\	.
2C/	.	2E\	.	[2c\	-pul-	2g/	.
=92	=92	=92	=92	=92	=92	=92	=92
2FF/	.	2F\	.	4c\]	.	2a/	.
.	.	.	.	4d\	.	.	.
4GG/	.	2E\	.	2e\	.	4b-\	.
2AA/	.	.	.	.	.	2cc\	.
.	.	2C/	.	2f\	.	.	.
4BB-/	.	.	.	.	.	4b-\	.
2C/	.	2E\	.	4e\	.	2.g/	.
.	.	.	.	2c\	.	.	.
1GG	-tus	1D	-tus	.	.	.	.
.	.	.	.	4Bni\	.	4f/	.
.	.	.	.	4Bni\	-tus	2d/	-tus
.	.	.	.	4A/	.	.	.
=93	=93	=93	=93	=93	=93	=93	=93
0.Cl	est.	0.Cl	est.	0.cl	est.	0.el	est.
!!LO:LB:i:g=z
=94||	=94||	=94||	=94||	=94||	=94||	=94||	=94||
*>B	*>B	*>B	*>B	*>B	*>B	*>B	*>B
*clefF4	*	*clefF4	*	*clefGv2	*	*clefG2	*
*k[b-]	*	*k[b-]	*	*k[b-]	*	*k[b-]	*
*M2/1	*	*M2/1	*	*M2/1	*	*M2/1	*
*met(C|)	*	*met(C|)	*	*met(C|)	*	*met(C|)	*
!!section: Et resurrexit
!!!OMD: Et resurrexit
0r	.	0r	.	0r	.	0g	Et
=95	=95	=95	=95	=95	=95	=95	=95
0r	.	0r	.	0r	.	0f	re-
=96	=96	=96	=96	=96	=96	=96	=96
0r	.	0r	.	0c	Et	1e	-sur-
.	.	.	.	.	.	[1g	-re-
=97	=97	=97	=97	=97	=97	=97	=97
0r	.	0r	.	0B-	re-	1g]	.
.	.	.	.	.	.	1g	-xit
=98	=98	=98	=98	=98	=98	=98	=98
0r	.	0r	.	1A	-sur-	0a	ter-
.	.	.	.	[1c	-re-	.	.
=99	=99	=99	=99	=99	=99	=99	=99
0r	.	0r	.	1c]	.	1g	-ti-
.	.	.	.	1c	-xit	1g	-a
=100	=100	=100	=100	=100	=100	=100	=100
0r	.	0r	.	1.d	ter-	1.f	di-
.	.	.	.	2c\	.	[2g/	.
=101	=101	=101	=101	=101	=101	=101	=101
0r	.	0r	.	1c	-ti-	2g/]	.
.	.	.	.	.	.	2e/	.
.	.	.	.	1B-	-a	1d	.
=102	=102	=102	=102	=102	=102	=102	=102
0r	.	0r	.	2A/	di-	1c	-e
.	.	.	.	1c	.	.	.
.	.	.	.	.	.	1r	.
.	.	.	.	2A/	.	.	.
=103	=103	=103	=103	=103	=103	=103	=103
0r	.	0r	.	1G	.	1e	se-
.	.	.	.	1F	-e	1f	-cun-
=104	=104	=104	=104	=104	=104	=104	=104
0r	.	0r	.	1r	.	1f	-dum
.	.	.	.	1A	se-	1e	scrip-
=105	=105	=105	=105	=105	=105	=105	=105
0r	.	0r	.	1B-	-cun-	2.d/	-tu-
.	.	.	.	.	.	4e/	.
.	.	.	.	1B-	-dum	2f/	.
.	.	.	.	.	.	[2g/	.
=106	=106	=106	=106	=106	=106	=106	=106
0r	.	0r	.	1B-	scrip-	4g/]	.
.	.	.	.	.	.	4f/	.
.	.	.	.	.	.	2d/	.
.	.	.	.	2A/	-tu-	2c/	.
.	.	.	.	[2B-\	.	[2d/	.
=107	=107	=107	=107	=107	=107	=107	=107
0r	.	0r	.	4B-\]	.	4d/]	.
.	.	.	.	4A/	.	4c/	.
.	.	.	.	1G	.	1B-	.
.	.	.	.	4F#i/	.	4A/	.
.	.	.	.	4E/	.	4G/	.
=108	=108	=108	=108	=108	=108	=108	=108
0r	.	0r	.	1F#i	.	1A	.
.	.	.	.	1G	-ras.	1G	-ras.
=109	=109	=109	=109	=109	=109	=109	=109
0r	.	0r	.	1B-	Et	1d	Et
.	.	.	.	1c	a-	1e	a-
=110	=110	=110	=110	=110	=110	=110	=110
0r	.	0r	.	1d	-scen-	1f	-scen-
.	.	.	.	1G	-dit	1g	-dit
=111	=111	=111	=111	=111	=111	=111	=111
0r	.	0r	.	1d	in	1r	.
.	.	.	.	1e	ce-	1g	in
=112	=112	=112	=112	=112	=112	=112	=112
0r	.	0r	.	1f	-lum;	1a	ce-
.	.	.	.	1g	se-	1b-	-lum;
=113	=113	=113	=113	=113	=113	=113	=113
0r	.	0r	.	2e\	.	1cc	se-
.	.	.	.	2f\	.	.	.
.	.	.	.	2g\	-det	2b-\	-det
.	.	.	.	[2f\	ad	[2a/	ad
=114	=114	=114	=114	=114	=114	=114	=114
0r	.	0r	.	4f\]	.	2a/]	.
.	.	.	.	4e\	.	.	.
.	.	.	.	1d	dex-	4g/	dex-
.	.	.	.	.	.	4f/	.
.	.	.	.	.	.	2.e/	-te-
.	.	.	.	2c\	-te-	.	.
.	.	.	.	.	.	4d/	.
=115	=115	=115	=115	=115	=115	=115	=115
0r	.	0r	.	2d\	-ram	2f/	-ram
.	.	.	.	1G	pa-	2d/	pa-
.	.	.	.	.	.	2e/	.
.	.	.	.	[2B-\	.	[2d/	.
=116	=116	=116	=116	=116	=116	=116	=116
0r	.	0r	.	4B-\]	.	4d/]	.
.	.	.	.	4A/	.	4c/	.
.	.	.	.	1F	.	2A/	.
.	.	.	.	.	.	4c/	.
.	.	.	.	.	.	4d/	.
.	.	.	.	2G/	.	2e/	.
=117	=117	=117	=117	=117	=117	=117	=117
0r	.	0r	.	2D/	.	2f/	.
.	.	.	.	2F/	.	1d	.
.	.	.	.	1E	.	.	.
.	.	.	.	.	.	2c#i/	.
=118	=118	=118	=118	=118	=118	=118	=118
1r	.	0r	.	0D	-tris.	0d	-tris.
1GG	Et	.	.	.	.	.	.
=119	=119	=119	=119	=119	=119	=119	=119
1BB-	i-	0r	.	1r	.	0r	.
1BB-	-te-	.	.	1D	Et	.	.
=120	=120	=120	=120	=120	=120	=120	=120
1C	-rum	0r	.	1E	i-	0r	.
1C	ven-	.	.	1E	-te-	.	.
=121	=121	=121	=121	=121	=121	=121	=121
1D	-tu-	0r	.	1F	-rum	0r	.
1D	-rus	.	.	1F	ven-	.	.
=122	=122	=122	=122	=122	=122	=122	=122
1E	est	0r	.	1G	-tu-	0r	.
1E	cum	.	.	1G	-rus	.	.
=123	=123	=123	=123	=123	=123	=123	=123
1D	glo-	0r	.	1A	est	0r	.
1F	-ri-	.	.	1A	cum	.	.
=124	=124	=124	=124	=124	=124	=124	=124
1G	-a	0r	.	1B-	glo-	0r	.
1G	ju-	.	.	1B-	-ri-	.	.
=125	=125	=125	=125	=125	=125	=125	=125
1F	.	0r	.	1A	-a	0r	.
1D	-di-	.	.	1A	ju-	.	.
=126	=126	=126	=126	=126	=126	=126	=126
2E\	-ca-	0r	.	1c	-di-	0r	.
2.F\	.	.	.	.	.	.	.
.	.	.	.	1c	-ca-	.	.
4E\	.	.	.	.	.	.	.
4D\	.	.	.	.	.	.	.
4C/	.	.	.	.	.	.	.
=127	=127	=127	=127	=127	=127	=127	=127
1BB-	-re	0r	.	1d	-re	0r	.
1F	vi-	.	.	1d	vi-	.	.
=128	=128	=128	=128	=128	=128	=128	=128
2E\	.	0r	.	2c\	.	0r	.
2G\	.	.	.	2B-\	.	.	.
2F\	-vos	.	.	1A	-vos	.	.
[2D\	et	.	.	.	.	.	.
=129	=129	=129	=129	=129	=129	=129	=129
2D\]	.	0r	.	2B-\	et	0r	.
2.E-\	mor-	.	.	2.c\	mor-	.	.
4D\	.	.	.	4B-\	.	.	.
4C/	.	.	.	4A/	.	.	.
4BB-/	.	.	.	4G/	.	.	.
=130	=130	=130	=130	=130	=130	=130	=130
2AA/	.	0r	.	2F/	.	0r	.
2BB-/	.	.	.	2D/	.	.	.
2AA/	.	.	.	2C/	.	.	.
[2D\	.	.	.	2D/	.	.	.
=131	=131	=131	=131	=131	=131	=131	=131
2D\]	.	0r	.	1E	-tu-	0r	.
2C/	.	.	.	.	.	.	.
2D\	.	.	.	1D	-os;	.	.
[2GG/	-tu-	.	.	.	.	.	.
=132	=132	=132	=132	=132	=132	=132	=132
4GG/]	.	0r	.	2E/	cu-	0r	.
4EE/	.	.	.	.	.	.	.
2FF/	.	.	.	1D	-jus	.	.
2GG/	-os;	.	.	.	.	.	.
2r	.	.	.	[2G/	re-	.	.
=133	=133	=133	=133	=133	=133	=133	=133
2GG/	cu-	0r	.	4G/]	.	0r	.
.	.	.	.	4E/	.	.	.
2AA/	.	.	.	2F/	.	.	.
2BB-/	-jus	.	.	1G	.	.	.
[2C/	re-	.	.	.	.	.	.
=134	=134	=134	=134	=134	=134	=134	=134
4C/]	.	0r	.	2A/	.	0r	.
4AA/	.	.	.	.	.	.	.
2BB-/	.	.	.	1G	-gni	.	.
2C/	-gni	.	.	.	.	.	.
2r	.	.	.	[2c\	non	.	.
=135	=135	=135	=135	=135	=135	=135	=135
2C/	non	0r	.	4c\]	.	0r	.
.	.	.	.	4A/	.	.	.
2D\	.	.	.	2B-\	.	.	.
2E\	.	.	.	1c	e-	.	.
[2F\	e-	.	.	.	.	.	.
=136	=136	=136	=136	=136	=136	=136	=136
4F\]	.	0r	.	2d\	.	0r	.
4D\	.	.	.	.	.	.	.
2E\	.	.	.	1c	-rit	.	.
2F\	-rit	.	.	.	.	.	.
2r	.	.	.	[2f\	fi-	.	.
=137	=137	=137	=137	=137	=137	=137	=137
2F\	fi-	0r	.	4f\]	.	0r	.
.	.	.	.	4d\	.	.	.
2G\	.	.	.	2e\	.	.	.
2A\	.	.	.	2.f\	.	.	.
[2F\	.	.	.	.	.	.	.
.	.	.	.	4e\	.	.	.
=138	=138	=138	=138	=138	=138	=138	=138
2F\]	.	0r	.	2d\	.	0r	.
2A\	.	.	.	2c\	.	.	.
2G\	.	.	.	2e\	.	.	.
[2F\	.	.	.	[2d\	.	.	.
=139	=139	=139	=139	=139	=139	=139	=139
4F\]	.	0r	.	4d\]	.	0r	.
4E\	.	.	.	4c\	.	.	.
2C/	.	.	.	1c	.	.	.
1D	.	.	.	.	.	.	.
.	.	.	.	2Bni\	.	.	.
=140	=140	=140	=140	=140	=140	=140	=140
0C	-nis.	0G	Et	1c	-nis.	1e	Et
.	.	.	.	1r	.	1e	in
=141	=141	=141	=141	=141	=141	=141	=141
0r	.	0F	in	1A	Et	1f	spi-
.	.	.	.	1A	in	1f	-ri-
=142	=142	=142	=142	=142	=142	=142	=142
0C	Et	1E	spi-	1G	spi-	1g	-tum
.	.	[1G	-ri-	1c	-ri-	[1g	sanc-
=143	=143	=143	=143	=143	=143	=143	=143
0BB-	in	1G]	.	1.d	-tum	2g/]	.
.	.	.	.	.	.	2f/	.
.	.	1G	-tum	.	.	1d	.
.	.	.	.	2e\	sanc-	.	.
=144	=144	=144	=144	=144	=144	=144	=144
1AA	spi-	1.A	sanc-	1f	-tum,	0c	-tum,
[1C	-ri-	.	.	[1e	do-	.	.
.	.	2G\	.	.	.	.	.
=145	=145	=145	=145	=145	=145	=145	=145
1C]	.	0G	-tum,	2e\]	.	1e	do-
.	.	.	.	2c\	.	.	.
1C	-tum	.	.	1c	-mi-	1e	-mi-
=146	=146	=146	=146	=146	=146	=146	=146
1.D	sanc-	1.F	do-	1A	-num	1.f	-num
.	.	.	.	1B-	.	.	.
2C/	.	[2G\	.	.	.	[2e/	.
=147	=147	=147	=147	=147	=147	=147	=147
1C	-tum,	2G\]	.	1c	.	2e/]	.
.	.	2E\	.	.	.	2c/	.
1BB-	do-	1D	-mi-	1F	.	1d	et
=148	=148	=148	=148	=148	=148	=148	=148
2AA/	.	1C	-num	1r	.	1.e	vi-
1C	.	.	.	.	.	.	.
.	.	1r	.	1c	et	.	.
2AA/	.	.	.	.	.	2f/	.
=149	=149	=149	=149	=149	=149	=149	=149
1GG	.	1BB-	et	1d	vi-	1g	-vi-
1GG	-mi-	2D\	vi-	1B-	-vi-	1g	-fi-
.	.	2E\	.	.	.	.	.
=150	=150	=150	=150	=150	=150	=150	=150
0FF	-num	1F	-vi-	2d\	-fi-	1a	-can-
.	.	.	.	1c	.	.	.
.	.	1F	-fi-	.	.	1f	.
.	.	.	.	2A/	.	.	.
=151	=151	=151	=151	=151	=151	=151	=151
1r	.	2E\	-can-	2c\	-can-	1g	-tem;
.	.	1E	.	2B-\	.	.	.
1C	qui	.	.	1G	.	2r	.
.	.	4D\	.	.	.	[2c/	qui
.	.	4E\	.	.	.	.	.
=152	=152	=152	=152	=152	=152	=152	=152
1FF	ex	1F	-tem;	1A	-tem;	2c/]	.
.	.	.	.	.	.	2f/	ex
2EE/	pa-	1C	qui	2G/	qui	2g/	pa-
[2FF/	.	.	.	2F/	ex	[2a/	.
=153	=153	=153	=153	=153	=153	=153	=153
2FF/]	.	1C	ex	2A/	pa-	2a/]	.
2GG/	.	.	.	2B-\	.	2g/	.
1AA	-tre	1C	pa-	1c	-tre	1e	-tre
=154	=154	=154	=154	=154	=154	=154	=154
2.GG/	fi-	1.D	-tre	2.B-\	fi-	2r	.
.	.	.	.	.	.	2g/	fi-
4AA/	.	.	.	4c\	.	.	.
2BB-/	-li-	.	.	2d\	-li-	2f/	-li-
[2C/	-o-	[2C/	fi-	[2G/	-o-	[2e/	-o-
=155	=155	=155	=155	=155	=155	=155	=155
2C/]	.	2C/]	.	2G/]	.	2e/]	.
2D\	.	2BB-/	-li-	2B-\	.	1d	.
1E	.	1C	-o-	2A/	.	.	.
.	.	.	.	2G/	.	2c/	.
=156	=156	=156	=156	=156	=156	=156	=156
2.D\	-que-	1GG	-que-	1B-	-que-	0d	-que-
4E\	.	.	.	.	.	.	.
2F\	-pro-	1r	.	2A/	-pro-	.	.
2G\	-ce-	.	.	[2G/	.	.	.
=157	=157	=157	=157	=157	=157	=157	=157
2E\	.	1r	.	2G/]	.	1c	-pro-
2F\	.	.	.	1c	-ce-	.	.
2.D\	.	1GG	-pro-	.	.	1d	.
.	.	.	.	2Bni\	.	.	.
4C/	.	.	.	.	.	.	.
=158	=158	=158	=158	=158	=158	=158	=158
2AA/	.	1.C	-ce-	0c	-dit.	1e	-ce-
2C/	.	.	.	.	.	.	.
2FF/	.	.	.	.	.	1f	.
[2BB-/	.	[2D\	.	.	.	.	.
=159	=159	=159	=159	=159	=159	=159	=159
2BB-/]	.	2D\]	.	1r	.	0g	.
2AA/	.	1E	.	.	.	.	.
1GG	.	.	.	1B-	Qui	.	.
.	.	2D\	.	.	.	.	.
=160	=160	=160	=160	=160	=160	=160	=160
1FF	-dit.	1F	-dit.	2A/	cum	1c	-dit.
.	.	.	.	2F/	.	.	.
1C	Qui	2E\	Qui	1G	pa-	1r	.
.	.	2C/	cum	.	.	.	.
=161	=161	=161	=161	=161	=161	=161	=161
2FF/	cum	1D	pa-	1F	-tre	0r	.
2GG/	pa-	.	.	.	.	.	.
1AA	-tre	1C	-tre	1E	et	.	.
=162	=162	=162	=162	=162	=162	=162	=162
2r	.	1BB-	et	2F/	fi-	0r	.
2GG/	et	.	.	2.G/	.	.	.
4EE/	fi-	2C/	fi-	.	.	.	.
4FF/	.	.	.	4F/	.	.	.
2GG/	-li-	2BB-/	-li-	2D/	-li-	.	.
=163	=163	=163	=163	=163	=163	=163	=163
2AA/	-o	2C/	-o	2C/	-o	0r	.
2FF/	.	2AA/	si-	2c\	si-	.	.
2r	.	2BB-/	.	2d\	.	.	.
[2C/	si-	2C/	.	2c\	.	.	.
=164	=164	=164	=164	=164	=164	=164	=164
2C/]	.	1D	-mul	1f	.	0r	.
2BB-/	.	.	.	.	.	.	.
2.C/	-mul	1C	.	2.e\	-mul	.	.
4D\	.	.	.	4f\	.	.	.
=165	=165	=165	=165	=165	=165	=165	=165
2E\	.	0r	.	2g\	.	0r	.
1F	ad-	.	.	2c\	ad-	.	.
.	.	.	.	2d\	-o-	.	.
2A\	-o-	.	.	[2f\	-ra-	.	.
=166	=166	=166	=166	=166	=166	=166	=166
1G	-ra-	0r	.	2f\]	.	1b-	et
.	.	.	.	2e\	.	.	.
2.F\	.	.	.	1f	-tur	2.a/	con-
4D\	.	.	.	.	.	4b-\	.
=167	=167	=167	=167	=167	=167	=167	=167
2C/	.	0r	.	2e-\	et	2cc\	.
1BB-	.	.	.	2d\	con-	2f/	-glo-
.	.	.	.	1B-	-glo-	2g/	-ri-
2GG/	.	.	.	.	.	[2b-\	-fi-
=168	=168	=168	=168	=168	=168	=168	=168
1FF	-tur	0r	.	1c	-ri-	2b-\]	.
.	.	.	.	.	.	2a/	.
1r	.	.	.	2B-\	-fi-	2b-\	-ca-
.	.	.	.	2A/	-ca-	2cc\	.
=169	=169	=169	=169	=169	=169	=169	=169
2.D\	qui	0r	.	1F	-tur;	2.a/	-tur;
4C/	.	.	.	.	.	4f/	.
2E\	.	.	.	1c	qui	2g/	.
[2F\	.	.	.	.	.	2c/	qui
=170	=170	=170	=170	=170	=170	=170	=170
2F\]	.	0r	.	1A	lo-	2d/	lo-
2A\	.	.	.	.	.	1f	-cu-
1G	lo-	.	.	1B-	.	.	.
.	.	.	.	.	.	2e/	.
=171	=171	=171	=171	=171	=171	=171	=171
1F	-cu-	0r	.	2A/	-cu-	2d/	.
.	.	.	.	2c\	.	2c/	.
2D\	.	.	.	2d\	.	2f/	.
2C/	.	.	.	2e\	.	2g/	.
=172	=172	=172	=172	=172	=172	=172	=172
2F\	.	0r	.	2.f\	.	2.a/	.
2G\	.	.	.	.	.	.	.
.	.	.	.	4e\	.	4g/	.
2.A\	.	.	.	[1c	.	2e/	.
.	.	.	.	.	.	2f/	-tus
4G\	.	.	.	.	.	.	.
=173	=173	=173	=173	=173	=173	=173	=173
2E\	.	0r	.	2c\]	.	2g/	est
2F\	-tus	.	.	2A/	-tus	2.c/	per
1G	est	.	.	1G	est	.	.
.	.	.	.	.	.	4A/	.
.	.	.	.	.	.	2B-/	pro-
=174	=174	=174	=174	=174	=174	=174	=174
2.C/	per	0r	.	0r	.	2c/	-phe-
.	.	.	.	.	.	2e/	.
4AA/	.	.	.	.	.	.	.
2BB-/	pro-	.	.	.	.	2d/	.
2C/	-phe-	.	.	.	.	2G/	.
=175	=175	=175	=175	=175	=175	=175	=175
2E\	.	0r	.	0r	.	2g/	.
2D\	.	.	.	.	.	2f/	.
2GG/	.	.	.	.	.	2d/	.
[2G\	.	.	.	.	.	[2e/	.
=176	=176	=176	=176	=176	=176	=176	=176
2G\]	.	0r	.	1r	.	4e/]	.
.	.	.	.	.	.	4d/	.
2F\	.	.	.	.	.	1d	.
1E	.	.	.	1G	Et	.	.
.	.	.	.	.	.	2c#i/	.
=177	=177	=177	=177	=177	=177	=177	=177
0D	-tas.	1r	.	1A	u-	1d	-tas.
.	.	1GG	Et	1B-	-nam	1d	Et
=178	=178	=178	=178	=178	=178	=178	=178
1r	.	1C	u-	1c	sanc-	1e	u-
1D	Et	1D	-nam	1A	.	1f	-nam
=179	=179	=179	=179	=179	=179	=179	=179
1C	u-	0E	sanc-	2c\	.	1.g	sanc-
.	.	.	.	2B-\	.	.	.
1C	-nam	.	.	1G	.	.	.
.	.	.	.	.	.	2f/	.
=180	=180	=180	=180	=180	=180	=180	=180
1BB-	sanc-	[0F	.	1B-	-tam	1d	-tam
2AA/	.	.	.	2c\	ca-	1r	.
[2BB-/	.	.	.	[2d\	-tho-	.	.
=181	=181	=181	=181	=181	=181	=181	=181
2BB-/]	.	0F]	.	2d\]	.	1r	.
4AA/	.	.	.	4c\	.	.	.
4GG/	.	.	.	4B-\	.	.	.
1FF	-tam	.	.	1A	.	1c	ca-
=182	=182	=182	=182	=182	=182	=182	=182
0GG	ca-	1D	.	1G	.	2B-/	-tho-
.	.	.	.	.	.	1d	.
.	.	1BB-	.	1B-	-li-	.	.
.	.	.	.	.	.	2e/	-li-
=183	=183	=183	=183	=183	=183	=183	=183
1FF	-tho-	1C	-tam	1A	-cam	1f	-cam
1BB-	-li-	1r	.	1B-	et	[1f	et
=184	=184	=184	=184	=184	=184	=184	=184
1AA	-cam	0F	et	1c	a-	2f/]	.
.	.	.	.	.	.	2e/	.
1BB-	et	.	.	1B-	-pos-	1d	.
=185	=185	=185	=185	=185	=185	=185	=185
1C	a-	1E	a-	1G	-to-	1c	.
1BB-	-pos-	1F	-pos-	1B-	-li-	1d	.
=186	=186	=186	=186	=186	=186	=186	=186
1GG	-to-	1G	-to-	1.B-	-cam	1r	.
[1BB-	.	1F	-li-	.	.	[1d	ec-
.	.	.	.	2A/	.	.	.
=187	=187	=187	=187	=187	=187	=187	=187
2BB-/]	.	1D	-cam	1F	.	1d]	.
2AA/	-li-	.	.	.	.	.	.
1FF	-cam	[1F	ec-	1A	ec-	1c	-cle-
=188	=188	=188	=188	=188	=188	=188	=188
2r	.	2F\]	.	1A	-cle-	1f	.
2FF/	ec-	2E\	.	.	.	.	.
2EE/	-cle-	[1C	-cle-	2G/	.	2g/	.
[2FF/	.	.	.	[2A/	.	[2f/	.
=189	=189	=189	=189	=189	=189	=189	=189
2FF/]	.	1C]	.	2A/]	.	4f/]	.
.	.	.	.	.	.	4e/	.
2AA/	.	.	.	1F	.	2c/	.
1GG	-si-	1BB-	-si-	.	.	2d/	.
.	.	.	.	2E/	-si-	2B-/	-si-
=190	=190	=190	=190	=190	=190	=190	=190
1FF	-am.	1C	-am.	1F	-am.	1A	-am.
1r	.	2r	.	2.E/	Con-	1G	.
.	.	[2C/	Con-	.	.	.	.
.	.	.	.	4C/	.	.	.
=191	=191	=191	=191	=191	=191	=191	=191
0r	.	2C/]	.	1D	.	0g	Con-
.	.	2BB-/	.	.	.	.	.
.	.	1C	-fi-	2C/	-fi-	.	.
.	.	.	.	[2c\	-te-	.	.
=192	=192	=192	=192	=192	=192	=192	=192
0r	.	0D	-te-	2c\]	.	1f	-fi-
.	.	.	.	2Bni\	.	.	.
.	.	.	.	2Bni\	.	1f	-te-
.	.	.	.	2A/	.	.	.
=193	=193	=193	=193	=193	=193	=193	=193
0G	u-	0C	-or	1.c	-or	1.e	-or
.	.	.	.	2A/	.	2c/	.
=194	=194	=194	=194	=194	=194	=194	=194
0E	-num	1.C	u-	1G	u-	1g	u-
.	.	.	.	1c	-num	1a	-num
.	.	2AA/	.	.	.	.	.
=195	=195	=195	=195	=195	=195	=195	=195
1D	bap-	1BB-	-num	1d	bap-	1g	bap-
1C	-tis-	1C	.	1e	-tis-	2a/	-tis-
.	.	.	.	.	.	[2cc\	.
=196	=196	=196	=196	=196	=196	=196	=196
0F	-ma	1r	.	1c	.	2cc\]	.
.	.	.	.	.	.	2b-\	.
.	.	1D	bap-	2d\	.	2b-\	.
.	.	.	.	[2f\	.	2a/	.
=197	=197	=197	=197	=197	=197	=197	=197
1.G	in	0C	-tis-	2f\]	.	2.cc\	-ma
.	.	.	.	2e\	.	.	.
.	.	.	.	.	.	4b-\	.
.	.	.	.	2e\	.	1g	.
2E\	.	.	.	2d\	.	.	.
=198	=198	=198	=198	=198	=198	=198	=198
1D	re-	1BB-	.	1f	.	1r	.
1C	-mis-	1C	.	2e\	.	[1g	in
.	.	.	.	2c\	.	.	.
=199	=199	=199	=199	=199	=199	=199	=199
1BB-	-si-	1GG	.	1d	-ma	1g]	.
1C	-o-	1AA	.	1c	.	1e	re-
=200	=200	=200	=200	=200	=200	=200	=200
0GG	-nem	0BB-	-ma	1r	.	2g/	-mis-
.	.	.	.	.	.	2f/	.
.	.	.	.	1d	pec-	1d	-si-
=201	=201	=201	=201	=201	=201	=201	=201
1r	.	0C	.	1G	.	1e	-o-
1G	pec-	.	.	1c	.	1e	-nem
=202	=202	=202	=202	=202	=202	=202	=202
1F	.	0r	.	1d	.	1f	pec-
1E	-ca-	.	.	1e	-ca-	1g	-ca-
=203	=203	=203	=203	=203	=203	=203	=203
1D	-to-	0r	.	1.f	-to-	1.a	-to-
[1F	.	.	.	.	.	.	.
.	.	.	.	2e\	.	2f/	.
=204	=204	=204	=204	=204	=204	=204	=204
2F\]	.	1F	Et	1c	-rum.	1a	-rum.
2E\	.	.	.	.	.	.	.
1C	.	1E	ex-	1c	Et	[1g	.
=205	=205	=205	=205	=205	=205	=205	=205
1.BB-	-rum.	1D	-spec-	1.d	.	2g/]	.
.	.	.	.	.	.	2f/	.
.	.	[1F	.	.	.	1d	.
2AA/	.	.	.	4c\	.	.	.
.	.	.	.	4B-\	.	.	.
=206	=206	=206	=206	=206	=206	=206	=206
1FF	.	2F\]	.	1A	.	1c	Et
.	.	2E\	.	.	.	.	.
1r	.	[1C	.	1G	ex-	1e	ex-
=207	=207	=207	=207	=207	=207	=207	=207
0FF	Et	1C]	.	1.c	-spec-	2.f/	-spec-
.	.	.	.	.	.	4g/	.
.	.	1F	.	.	.	1a	.
.	.	.	.	2A/	.	.	.
=208	=208	=208	=208	=208	=208	=208	=208
1GG	ex-	1E	.	1B-	.	2g/	.
.	.	.	.	.	.	1e	.
1AA	-spec-	1A	.	1c	.	.	.
.	.	.	.	.	.	2f/	.
=209	=209	=209	=209	=209	=209	=209	=209
0BB-	-to	2G\	.	1d	-to	2.g/	-to
.	.	1G	.	.	.	.	.
.	.	.	.	.	.	4f/	.
.	.	.	.	1B-	.	1d	.
.	.	4F\	.	.	.	.	.
.	.	4G\	.	.	.	.	.
=210	=210	=210	=210	=210	=210	=210	=210
1AA	re-	0A	-to	1r	.	1c	re-
1C	-sur-	.	.	1c	re-	1e	-sur-
=211	=211	=211	=211	=211	=211	=211	=211
1BB-	-rec-	1r	.	1d	-sur-	1f	-rec-
[1GG	-ti-	1D	re-	1d	-rec-	1g	-ti-
=212	=212	=212	=212	=212	=212	=212	=212
1GG]	.	1E	-sur-	1B-	-ti-	1b-	-o-
[1FF	-o-	1F	-rec-	2d\	-o-	[1a	.
.	.	.	.	2c\	.	.	.
=213	=213	=213	=213	=213	=213	=213	=213
0FF]	.	0A	-ti-	2d\	.	2a/]	.
.	.	.	.	1f	.	2f/	.
.	.	.	.	.	.	2a/	.
.	.	.	.	2e\	.	[2cc\	.
=214	=214	=214	=214	=214	=214	=214	=214
0C	.	1G	-o-	0e	.	2cc\]	.
.	.	.	.	.	.	4b-\	.
.	.	.	.	.	.	4a/	.
.	.	[1E	-nem	.	.	1g	.
=215	=215	=215	=215	=215	=215	=215	=215
1AA	-nem	1E]	.	1c	-nem	0a	-nem
1FF	mor-	1F	mor-	[1d	mor-	.	.
=216	=216	=216	=216	=216	=216	=216	=216
0GG	-tu-	0D	-tu-	1d]	.	1r	.
.	.	.	.	1B-	-tu-	1g	mor-
=217	=217	=217	=217	=217	=217	=217	=217
1FF	-o-	1F	-o-	1A	-o-	1.c	-tu-
[1C	.	1E	.	[1G	.	.	.
.	.	.	.	.	.	2d/	.
=218	=218	=218	=218	=218	=218	=218	=218
1C]	.	0C	.	1G]	.	1e	-o-
1AA	.	.	.	1c	.	1f	.
=219	=219	=219	=219	=219	=219	=219	=219
0GG	.	0D	.	2B-\	.	2.g/	-rum.
.	.	.	.	1B-	.	.	.
.	.	.	.	.	.	4f/	.
.	.	.	.	.	.	1d	.
.	.	.	.	2A/	.	.	.
=220	=220	=220	=220	=220	=220	=220	=220
1AA	-rum.	0C	-rum.	0c	-rum.	1r	.
[1FF	Et	.	.	.	.	[1a	Et
=221	=221	=221	=221	=221	=221	=221	=221
0FF]	.	0F	Et	1A	Et	1a]	.
.	.	.	.	1F	vi-	1a	vi-
=222	=222	=222	=222	=222	=222	=222	=222
1EE	vi-	1BB-	vi-	1G	.	1b-	.
1FF	-tam	1F	.	2A/	.	2a/	.
.	.	.	.	2c\	.	[2a/	-tam
=223	=223	=223	=223	=223	=223	=223	=223
0r	.	1G	-tam	1B-	-tam	2a/]	.
.	.	.	.	.	.	2g/	ven-
.	.	1D	.	1A	.	2.a/	-tu-
.	.	.	.	.	.	4b-\	.
=224	=224	=224	=224	=224	=224	=224	=224
1FF	ven-	1C	ven-	2r	.	1cc	.
.	.	.	.	2A/	ven-	.	.
2GG/	-tu-	2G\	-tu-	2B-\	-tu-	2b-\	.
[2AA/	.	2F\	.	2c\	.	[2a/	.
=225	=225	=225	=225	=225	=225	=225	=225
2AA/]	.	1A	.	1d	-ri	2a/]	.
2BB-/	.	.	.	.	.	4g/	.
.	.	.	.	.	.	4f/	.
1C	-ri	2G\	-ri	1c	.	1e	-ri
.	.	2E\	.	.	.	.	.
=226	=226	=226	=226	=226	=226	=226	=226
1r	.	1D	.	2B-\	se-	0r	.
.	.	.	.	1A	.	.	.
1FF	se-	1r	.	.	.	.	.
.	.	.	.	4G/	.	.	.
.	.	.	.	4F/	.	.	.
=227	=227	=227	=227	=227	=227	=227	=227
1GG	.	0r	.	2E/	.	0r	.
.	.	.	.	1D	.	.	.
1BB-	.	.	.	.	.	.	.
.	.	.	.	[2G/	.	.	.
=228	=228	=228	=228	=228	=228	=228	=228
1AA	-cu-	1r	.	2G/]	.	1c	se-
.	.	.	.	2F#i/	-cu-	.	.
[1GG	-li.	1D	se-	[1G	-li.	2.B-/	.
.	.	.	.	.	.	4c/	.
=229	=229	=229	=229	=229	=229	=229	=229
1GG]	.	2BB-/	.	1G]	.	2d/	.
.	.	2C/	.	.	.	2e/	.
1r	.	2D\	.	1r	.	2d/	.
.	.	2E\	.	.	.	[2g/	.
=230	=230	=230	=230	=230	=230	=230	=230
0r	.	2D\	.	0r	.	4g/]	.
.	.	.	.	.	.	4f/	.
.	.	2G\	.	.	.	2d/	.
.	.	2F\	.	.	.	2f/	.
.	.	[2G\	.	.	.	[2e/	.
=231	=231	=231	=231	=231	=231	=231	=231
0r	.	2G\]	.	0r	.	2e/]	.
.	.	2D\	.	.	.	1d	.
.	.	1E	-cu-	.	.	.	.
.	.	.	.	.	.	2c#i/	-cu-
=232	=232	=232	=232	=232	=232	=232	=232
1r	.	0D	-li.	1r	.	1d	-li.
1BB-	A-	.	.	1d	A-	1f	A-
=233	=233	=233	=233	=233	=233	=233	=233
2.C/	.	2.C/	A-	1G	.	2.e/	.
4AA/	.	4D\	.	.	.	4c/	.
2GG/	.	2E\	.	2B-\	.	2g/	.
2FF/	.	2F\	.	4A/	.	2a/	.
.	.	.	.	[4c\	.	.	.
=234	=234	=234	=234	=234	=234	=234	=234
2.C/	.	2E\	.	4c\]	.	2g/	.
.	.	.	.	4B-\	.	.	.
.	.	2F\	.	2A/	.	2.cc\	.
4D\	.	.	.	.	.	.	.
1E	.	1C	.	1G	-men,	.	.
.	.	.	.	.	.	4b-\	.
.	.	.	.	.	.	2g/	.
=235	=235	=235	=235	=235	=235	=235	=235
2.F\	.	1FF	.	2r	.	1a	.
.	.	.	.	2F/	a-	.	.
4E\	.	.	.	.	.	.	.
2C/	.	2C/	.	2G/	.	2.g/	.
[2D\	.	[2GG/	.	[2B-\	.	.	.
.	.	.	.	.	.	4f/	.
=236	=236	=236	=236	=236	=236	=236	=236
2D\]	.	2GG/]	.	4B-\]	.	2d/	.
.	.	.	.	4A/	.	.	.
2.C/	.	1G	.	1c	.	1e	.
4BB-/	.	.	.	.	.	.	.
2GG/	.	[2G\	.	2B-\	.	[2d/	.
=237	=237	=237	=237	=237	=237	=237	=237
1AA	.	4G\]	.	2.A/	.	4d/]	.
.	.	4E\	.	.	.	4c/	.
.	.	2F\	.	.	.	2A/	.
.	.	.	.	8G/L	.	.	.
.	.	.	.	8F/J	.	.	.
1GG	-men,	2G\	.	4E/	.	2B-/	.
.	.	.	.	4D/	.	.	.
.	.	2E\	.	[2G/	.	2G/	.
=238	=238	=238	=238	=238	=238	=238	=238
1r	.	1D	-men,	2G/]	.	1A	-men,
.	.	.	.	2F/	.	.	.
2.GG/	a-	2r	.	2G/	.	2.B-/	a-
.	.	2G\	a-	[2B-\	.	.	.
4AA/	.	.	.	.	.	4c/	.
=239	=239	=239	=239	=239	=239	=239	=239
2BB-/	.	2.F\	.	4B-\]	.	2.d/	.
.	.	.	.	4c\	.	.	.
1BB-	.	.	.	2.d\	.	.	.
.	.	4E\	.	.	.	4e/	.
.	.	2D\	.	.	.	2f/	.
.	.	.	.	4B-\	.	.	.
2AA/	.	2C/	.	[2c\	.	[2f/	.
=240	=240	=240	=240	=240	=240	=240	=240
1FF	-men,	2.F\	.	2c\]	.	4f/]	.
.	.	.	.	.	.	4e/	.
.	.	.	.	2f\	.	2c/	.
.	.	4E\	.	.	.	.	.
1r	.	2C/	.	2e\	.	2g/	.
.	.	2D\	.	[2d\	.	2f/	.
=241	=241	=241	=241	=241	=241	=241	=241
2r	.	4BB-/	.	4d\]	.	1g	.
.	.	2C/	.	4c\	.	.	.
1C	a-	.	.	2A/	.	.	.
.	.	4D\	.	.	.	.	.
.	.	2E\	.	2G/	.	2c/	.
2BB-/	.	2F\	.	2B-\	.	2d/	.
=242	=242	=242	=242	=242	=242	=242	=242
4AA/	.	2A\	.	2.c\	.	2.e/	.
2C/	.	.	.	.	.	.	.
.	.	1G	.	.	.	.	.
4BB-/	.	.	.	4d\	.	4f/	.
2GG/	.	.	.	2e\	.	2g/	.
2FF/	.	[2C/	.	2f\	.	2a/	.
=243	=243	=243	=243	=243	=243	=243	=243
1C	.	2C/]	.	2e\	.	2g/	.
.	.	2E\	.	1c	.	1a	.
1F	-men,	1D	.	.	.	.	.
.	.	.	.	2Bni\	.	4g/	.
.	.	.	.	.	.	4f/	.
=244	=244	=244	=244	=244	=244	=244	=244
1r	.	[0Cl	-men.	[0cl	-men.	2e/	.
.	.	.	.	.	.	2g/	.
[1FF	a-	.	.	.	.	2f/	.
.	.	.	.	.	.	[2a/	.
=245	=245	=245	=245	=245	=245	=245	=245
1FF]	.	0C_	.	0c_	.	2a/]	.
.	.	.	.	.	.	4g/	.
.	.	.	.	.	.	4f/	.
[1C	.	.	.	.	.	[1e	.
=246	=246	=246	=246	=246	=246	=246	=246
0C]	.	0C_	.	0c_	.	2e/]	.
.	.	.	.	.	.	2c/	.
.	.	.	.	.	.	2.e/	.
.	.	.	.	.	.	4f/	.
=247	=247	=247	=247	=247	=247	=247	=247
0Cl	-men.	0C]	.	0c]	.	0gl	-men.
==	==	==	==	==	==	==	==
*-	*-	*-	*-	*-	*-	*-	*-
!!!RDF**kern: l=long note in original notation
!!!RDF**kern: i=editorial accidental
!!!RDF**kern: V=start of tuplet marker
!!!RDF**kern: Z=end of tuplet marker
!!!ENC:	Will Watson 12/09/2012
!!!END:	2015/12/05/
!!!EED:	Jesse Rodin
!!!EEV:	2015/12/07/
!!!ONB:	Translated from MusicXML and edited on 2015/12/07/ by Craig Sapp
!!muse2ps: C^@{COM}^i2I150v85,85,85,150Q16
